X:1
T:Title
%%score { ( 1 3 ) | ( 2 4 ) }
L:1/8
Q:1/4=100
M:4/4
K:Db
V:1 treble nm="Grand Piano"
V:3 treble 
V:2 bass 
V:4 bass 
V:1
 [FA]2 [FA]2 [FA]>[DG] [DF]>[FA] | [Fd]>[Fc] [Fd]>[FB] [FA]2 [DF]2 | %2
w: Albert~Simpson~Reitz * * * * *||
 [CG]2 [EG]2 [CE]>[DF] [EG]>[FA] | [Gc]>[GB] [FA]>[EG] [DF]4 | [FA]2 [FA]2 [FA]>[DG] [DF]>[FA] | %5
w: |||
 [Fd]>[Fc] [Fd]>[FB] [FA]2 F2 | E>E E>F =G>A B>d |[M:3/4] c2 B2 [CA]2 |[M:1/4] A>A |[M:4/4] d6 z2 | %10
w: |||||
 A6 z2 | [CE]>[_C=D] [=CE]>[_DF] [EG]>[FA] [GB]>[Gc] | A6 z2 | d6 z2 |[M:9/8] B6- B z z | %15
w: |||||
[M:4/4] A<d d>[Fd] [Gd]>[Gc] [GB]>[Gc] | [Fd]8 |] %17
w: ||
V:2
 [D,D]2 [D,D]2 [D,D]>[D,B,] [D,A,]>[D,A,] | [D,A,]>[D,A,] [D,A,]>[D,D] [D,D]2 [D,A,]2 | %2
 [E,A,]2 [C,A,]2 [A,,A,]>[A,,A,] [A,,A,]>[A,,A,] | [A,,A,]>[A,,A,] [B,,A,]>[C,A,] [D,A,]4 | %4
 [D,D]2 [D,D]2 [D,D]>[D,B,] [D,A,]>[D,A,] | [D,A,]>[D,A,] [D,A,]>[D,D] [D,D]2 [D,A,D]2 | %6
 [E,A,C]>[E,A,C] [E,=G,D]>[E,G,D] [E,B,D]>[E,A,D] [E,G,D]>[E,G,F] | %7
[M:3/4] [E,A,E]2 [E,D]2 [A,,E,]2 |[M:1/4] z2 |[M:4/4] z2 [D,A,]>[D,A,] [D,A,]2[K:treble] A>G | %10
 F6[K:bass] z2 | [A,,A,]>[A,,A,] [A,,A,]>[A,,A,] [A,,A,]>[A,,A,] [A,,A,]>[A,,A,] | %12
 [D,A,]2 [D,A,]>[D,A,] [D,A,]2[K:treble] G>G | %13
 F2[K:bass] [D,A,]>[D,A,] [D,A,]2[K:treble] [A,G]>[B,F] | %14
[M:9/8] [DG]2[K:bass] [G,D]- [G,D]/[G,D]/ [G,D]2- [G,D][K:treble][=G,D_F]>[G,DF] | %15
[M:4/4] [A,DF]<[A,F][K:bass] [F,A,D]>[D,A,] [A,,A,]>[A,,A,] [A,,A,]>[A,,A,] | [D,A,]8 |] %17
V:3
 x8 | x8 | x8 | x8 | x8 | x8 | x8 |[M:3/4] x6 |[M:1/4] x2 |[M:4/4] z2 F>F F2 c>B | %10
 z2 D>D D2 [A,EG]>[A,DF] | x8 | F2 F>F F2 B>c | z2 F>F F2 e>d |[M:9/8] z2 G- G/G/ G2- Gc>B | %15
[M:4/4] x8 | x8 |] %17
V:4
 x8 | x8 | x8 | x8 | x8 | x8 | x8 |[M:3/4] x6 |[M:1/4] x2 |[M:4/4] x6[K:treble] x2 | %10
 z2[K:bass] D,>D, D,2 D,>D, | x8 | x6[K:treble] x2 | x2[K:bass] x4[K:treble] x2 | %14
[M:9/8] x2[K:bass] x5[K:treble] x2 |[M:4/4] x2[K:bass] x6 | x8 |] %17

